_includes/icons/join/parental-leave.svg

<?xml version="1.0" encoding="UTF-8"?>
<svg width="52px" height="52px" viewBox="0 0 52 52" version="1.1" xmlns="http://www.w3.org/2000/svg" xmlns:xlink="http://www.w3.org/1999/xlink">
    <!-- Generator: Sketch 61 (89581) - https://sketch.com -->
    <title>Parental-leave</title>
    <desc>Created with Sketch.</desc>
    <g stroke="none" stroke-width="1" fill="none" fill-rule="evenodd">
        <g fill-rule="nonzero">
            <path d="M16.1406,3.65915 C15.0371,1.92087 12.5078,1.43259 10.8672,2.74118 C5.44727,7.06736 2,13.5224 2,20.749 L27,20.749 L16.1406,3.65915 Z M50.4375,11.374 L45.75,11.374 C42.3027,11.374 39.5,14.1767 39.5,17.624 L39.5,23.874 L2,23.874 C2,28.8154 4.24609,33.2881 7.88867,36.6377 C4.50977,37.5068 2,40.5439 2,44.1865 C2,48.5029 5.49609,51.999 9.8125,51.999 C14.1289,51.999 17.625,48.5029 17.625,44.1865 C17.625,43.3173 17.4492,42.5068 17.1953,41.7256 C19.3047,42.3017 21.5508,42.624 23.875,42.624 C26.1992,42.624 28.4551,42.3017 30.5547,41.7256 C30.291,42.5068 30.125,43.3173 30.125,44.1865 C30.125,48.5029 33.6211,51.999 37.9375,51.999 C42.2539,51.999 45.75,48.5029 45.75,44.1865 C45.75,40.5439 43.2402,37.5068 39.8613,36.6377 C43.5039,33.2881 45.75,28.8154 45.75,23.874 L45.75,17.624 L50.4375,17.624 C51.2969,17.624 52,16.9209 52,16.0615 L52,12.9365 C52,12.0771 51.2969,11.374 50.4375,11.374 Z M9.8125,47.3115 C8.09375,47.3115 6.6875,45.9052 6.6875,44.1865 C6.6875,42.4677 8.09375,41.0615 9.8125,41.0615 C11.5312,41.0615 12.9375,42.4677 12.9375,44.1865 C12.9375,45.9052 11.5312,47.3115 9.8125,47.3115 Z M41.0625,44.1865 C41.0625,45.9052 39.6562,47.3115 37.9375,47.3115 C36.2188,47.3115 34.8125,45.9052 34.8125,44.1865 C34.8125,42.4677 36.2188,41.0615 37.9375,41.0615 C39.6562,41.0615 41.0625,42.4677 41.0625,44.1865 Z"  fill="#80b690"></path>
            <path d="M0.50566734,18.249 L24.0898809,18.249 L13.7185909,1.92730719 L13.7184749,1.92712467 C12.7612191,0.419214689 10.5682105,0.0239773506 9.17911808,1.13195758 C3.8430541,5.39119584 0.657269177,11.5657952 0.50566734,18.249 Z M0.50796054,22.374 C0.650295217,26.8398437 2.69614434,31.0226903 6.22711214,34.2696553 L6.90461031,34.8926609 L6.01322278,35.1219382 C2.79013353,35.9509615 0.5,38.8375838 0.5,42.1865 C0.5,46.2267612 3.77223593,49.499 7.8125,49.499 C11.8527576,49.499 15.125,46.2267576 15.125,42.1865 C15.125,41.4444232 14.9884966,40.7069217 14.7197848,39.8801485 L14.4334733,38.9992248 L15.3270309,39.2432651 C17.4493687,39.8228985 19.6510329,40.124 21.875,40.124 C24.1025034,40.124 26.3143623,39.821836 28.4223972,39.2434216 L29.3291668,38.9946171 L29.0284379,39.8855138 C28.7613128,40.6768606 28.625,41.425448 28.625,42.1865 C28.625,46.2267576 31.8972424,49.499 35.9375,49.499 C39.9777576,49.499 43.25,46.2267576 43.25,42.1865 C43.25,38.8375922 40.9598453,35.9509638 37.7367472,35.1219382 L36.8453568,34.8926602 L37.5228589,34.2696544 C41.1853212,30.9017897 43.25,26.5270503 43.25,21.874 L43.25,15.124 L48.4375,15.124 C49.0207576,15.124 49.5,14.6447576 49.5,14.0615 L49.5,10.9365 C49.5,10.3532424 49.0207576,9.874 48.4375,9.874 L43.75,9.874 C40.5788424,9.874 38,12.4528424 38,15.624 L38,22.374 L0.50796054,22.374 Z M7.8125,45.8115 C5.81762363,45.8115 4.1875,44.1813584 4.1875,42.1865 C4.1875,40.1915736 5.81759162,38.5615 7.8125,38.5615 C9.80737439,38.5615 11.4375,40.1915896 11.4375,42.1865 C11.4375,44.1813424 9.80734237,45.8115 7.8125,45.8115 Z M39.5625,42.1865 C39.5625,44.1813424 37.9323424,45.8115 35.9375,45.8115 C33.9426576,45.8115 32.3125,44.1813424 32.3125,42.1865 C32.3125,40.1915896 33.9426256,38.5615 35.9375,38.5615 C37.9323744,38.5615 39.5625,40.1915896 39.5625,42.1865 Z" stroke="#1c1d20"></path>
        </g>
    </g>
</svg>

<svg id="Layer_1" data-name="Layer 1" xmlns="http://www.w3.org/2000/svg" viewBox="0 0 52 52"><defs><style>.cls-1{fill:#609c70;}.cls-2{fill:none;stroke:#54565a;}</style></defs><path class="cls-1" d="M16.1406,3.65924a3.667,3.667,0,0,0-5.2734-.918A23.01107,23.01107,0,0,0,2,20.74909H27Zm34.2969,7.71485H45.75a6.25574,6.25574,0,0,0-6.25,6.25v6.25H2a17.31675,17.31675,0,0,0,5.88867,12.7637,7.80239,7.80239,0,1,0,9.73633,7.5488,7.89087,7.89087,0,0,0-.4297-2.4609,25.28134,25.28134,0,0,0,13.3594,0,7.61742,7.61742,0,0,0-.4297,2.4609,7.81253,7.81253,0,1,0,9.7363-7.5488A17.31671,17.31671,0,0,0,45.75,23.87409v-6.25h4.6875A1.56706,1.56706,0,0,0,52,16.06159v-3.125A1.56706,1.56706,0,0,0,50.4375,11.37409ZM9.8125,47.31159a3.125,3.125,0,1,1,3.125-3.125A3.13422,3.13422,0,0,1,9.8125,47.31159Zm31.25-3.125a3.125,3.125,0,1,1-3.125-3.125A3.13425,3.13425,0,0,1,41.0625,44.18659Z"/><path class="cls-2" d="M.50567,18.24909H24.08988L13.71859,1.9274l-.00011-.00018a3.16734,3.16734,0,0,0-4.53936-.79517A22.52871,22.52871,0,0,0,.50567,18.24909Zm.00229,4.125A16.87653,16.87653,0,0,0,6.22711,34.26975l.6775.623-.89139.22928a7.37868,7.37868,0,1,0,8.70656,4.75821l-.28631-.88092.89356.244a24.78154,24.78154,0,0,0,13.09537.00016l.90677-.24881-.30073.8909a7.09809,7.09809,0,0,0-.40344,2.301A7.31254,7.31254,0,1,0,37.73675,35.122l-.89139-.22928.6775-.623A16.8039,16.8039,0,0,0,43.25,21.87409v-6.75h5.1875A1.06707,1.06707,0,0,0,49.5,14.06159v-3.125a1.06708,1.06708,0,0,0-1.0625-1.0625H43.75a5.75574,5.75574,0,0,0-5.75,5.75v6.75ZM7.8125,45.81159a3.625,3.625,0,1,1,3.625-3.625A3.63421,3.63421,0,0,1,7.8125,45.81159Zm31.75-3.625a3.625,3.625,0,1,1-3.625-3.625A3.63424,3.63424,0,0,1,39.5625,42.18659Z"/></svg>
